rospo-icon-theme-classic-common/48x48/places/folder-brown-network.svg

<svg height="48" width="48" xmlns="http://www.w3.org/2000/svg"><rect height="26" opacity=".2" rx="2" width="40" x="4" y="17"/><path d="m4 34c0 1.108.892 2 2 2h36c1.108 0 2-.892 2-2v-22c0-1.108-.892-2-2-2h-20v-2c0-1.108-.892-2-2-2h-14c-1.108 0-2 .892-2 2" fill="#957552"/><rect height="26" opacity=".2" rx="2" width="40" x="4" y="15"/><rect fill="#e4e4e4" height="16" rx="2" width="36" x="6" y="13"/><rect fill="#ae8e6c" height="26" rx="2" width="40" x="4" y="16"/><path d="m6 6c-1.108 0-2 .892-2 2v1c0-1.108.892-2 2-2h14c1.108 0 2 .892 2 2v-1c0-1.108-.892-2-2-2zm16 4v1h20c1.108 0 2 .892 2 2v-1c0-1.108-.892-2-2-2z" fill="#fff" opacity=".1"/><path d="m24 21c-4.418 0-8 3.582-8 8s3.582 8 8 8 8-3.582 8-8-3.582-8-8-8zm-.571 2.214c.076-.008.172.005.25 0 .009.037-.056.167-.143.357-.556 1.213-.587 2.634-.072 3.393.094.138.179.269.179.286s-.101.036-.214.036c-.267 0-.52-.163-1.036-.572-.23-.181-.528-.333-.644-.356-.18-.037-.229-.021-.464.213-.218.219-.285.336-.285.536 0 .758.899 1.36 2.571 1.715 2.271.481 2.83.913 2.893 2.107.079 1.497-.718 2.626-2.464 3.5-.209.104-.341.145-.429.179-.039-.004-.068.003-.107 0-.015-.047-.036-.154-.036-.358 0-.795-.313-1.613-.785-2.071-.127-.123-.482-.383-.786-.571-.304-.189-.61-.407-.679-.5-.113-.155-.122-.25-.035-.536.158-.522.347-.813.714-1.143.192-.173.386-.318.429-.322.042-.003-.246-.09-.679-.178-.433-.089-1.066-.274-1.393-.393-.598-.216-1.406-.671-1.714-1-.013-.014-.024-.023-.036-.036.442-1.757 1.68-3.198 3.322-3.892.343-.146.697-.245 1.071-.322.186-.038.379-.052.571-.071zm5.357 2.679c.134.083.641 1.179.785 1.714.187.691.174 1.886 0 2.572-.066.261-.15.505-.178.535-.028.031-.13-.144-.25-.357-.12-.212-.503-.664-.822-1-.919-.97-1.063-1.476-.678-2.25.194-.39 1.039-1.278 1.143-1.214z" fill="#3d3226"/></svg>

<svg xmlns="http://www.w3.org/2000/svg" width="48" height="48" version="1">
 <rect style="opacity:0.2" width="40" height="26" x="4" y="17" rx="2" ry="2"/>
 <path style="fill:#957552" d="M 4,34 C 4,35.108 4.892,36 6,36 H 42 C 43.108,36 44,35.108 44,34 V 12 C 44,10.892 43.108,10 42,10 H 22 V 8 C 22,6.892 21.108,6 20,6 H 6 C 4.892,6 4,6.892 4,8"/>
 <rect style="opacity:0.2" width="40" height="26" x="4" y="15" rx="2" ry="2"/>
 <rect style="fill:#dcdcdc" width="36" height="16" x="6" y="13" rx="2" ry="2"/>
 <rect style="fill:#ae8e6c" width="40" height="26" x="4" y="16" rx="2" ry="2"/>
 <path style="opacity:0.1;fill:#ffffff" d="M 6,6 C 4.892,6 4,6.892 4,8 V 9 C 4,7.892 4.892,7 6,7 H 20 C 21.108,7 22,7.892 22,9 V 8 C 22,6.892 21.108,6 20,6 Z M 22,10 V 11 H 42 C 43.108,11 44,11.892 44,13 V 12 C 44,10.892 43.108,10 42,10 Z"/>
 <path style="fill:#3d3226" d="M 24,21 C 19.582,21 16,24.582 16,29 16,33.418 19.582,37 24,37 28.418,37 32,33.418 32,29 32,24.582 28.418,21 24,21 Z M 23.429,23.214 C 23.505,23.206 23.601,23.219 23.679,23.214 23.688,23.251 23.623,23.381 23.536,23.571 22.98,24.784 22.949,26.205 23.464,26.964 23.558,27.102 23.643,27.233 23.643,27.25 23.643,27.267 23.542,27.286 23.429,27.286 23.162,27.286 22.909,27.123 22.393,26.714 22.163,26.533 21.865,26.381 21.749,26.358 21.569,26.321 21.52,26.337 21.285,26.571 21.067,26.79 21,26.907 21,27.107 21,27.865 21.899,28.467 23.571,28.822 25.842,29.303 26.401,29.735 26.464,30.929 26.543,32.426 25.746,33.555 24,34.429 23.791,34.533 23.659,34.574 23.571,34.608 23.532,34.604 23.503,34.611 23.464,34.608 23.449,34.561 23.428,34.454 23.428,34.25 23.428,33.455 23.115,32.637 22.643,32.179 22.516,32.056 22.161,31.796 21.857,31.608 21.553,31.419 21.247,31.201 21.178,31.108 21.065,30.953 21.056,30.858 21.143,30.572 21.301,30.05 21.49,29.759 21.857,29.429 22.049,29.256 22.243,29.111 22.286,29.107 22.328,29.104 22.04,29.017 21.607,28.929 21.174,28.84 20.541,28.655 20.214,28.536 19.616,28.32 18.808,27.865 18.5,27.536 18.487,27.522 18.476,27.513 18.464,27.5 18.906,25.743 20.144,24.302 21.786,23.608 22.129,23.462 22.483,23.363 22.857,23.286 23.043,23.248 23.236,23.234 23.428,23.215 Z M 28.786,25.893 C 28.92,25.976 29.427,27.072 29.571,27.607 29.758,28.298 29.745,29.493 29.571,30.179 29.505,30.44 29.421,30.684 29.393,30.714 29.365,30.745 29.263,30.57 29.143,30.357 29.023,30.145 28.64,29.693 28.321,29.357 27.402,28.387 27.258,27.881 27.643,27.107 27.837,26.717 28.682,25.829 28.786,25.893 Z"/>
</svg>
